icon-themes/sifr_svg/cmd/lc_symbolshapes.cloud.svg

<svg viewBox="0 0 24 24" xmlns="http://www.w3.org/2000/svg"><g fill="#555753"><path d="m4 7v10l.5123001 2.408957 7.8690369-.102855 1.64095-2.306102h4.977713l1.591127-7.2193891-.591127-3.7806109-8-1.3668688z" opacity=".35"/><path d="m12 3c-1.744716 0-3.2049099 1.0698314-3.9082031 2.5664062-.385457-.1008971-.735426-.2812499-1.1542969-.28125-2.7234749 0-4.9375 2.2590115-4.9375 4.9999998 0 1.288977.5847731 2.383972 1.3867188 3.279297-.7913636.796118-1.3867188 1.791316-1.3867188 3.007813 0 2.425377 1.9622041 4.427734 4.375 4.427734.8442036 0 1.5882825-.30835 2.25-.726562.6617179.418212 1.405797.726562 2.25.726562 1.744714 0 3.204909-1.069832 3.908203-2.566406.38517.100739.735776.28125 1.154297.28125 2.723475 0 4.9375-2.25901 4.9375-5 0-.690931-.294781-1.266333-.544922-1.855469.961846-.812485 1.669922-1.9302469 1.669922-3.2890625 0-2.4253772-1.962204-4.4277344-4.375-4.4277344-.861778 0-1.624507.320619-2.308594.7597657-.786708-1.0712474-1.8864-1.9023438-3.316406-1.9023438zm0 1.9980469c1.012362 0 1.845336.6547216 2.191406 1.5957031l.148438.40625h1.457031l.074219-.0820312c.432816-.4799636 1.054369-.7753907 1.753906-.7753907 1.315354 0 2.376953 1.0657556 2.376953 2.4277344 0 .9295179-.508631 1.7173875-1.246094 2.1289065l-.755859.421875v.349609l.394531.630859c.299536.47875.482422 1.032242.482422 1.613282 0 1.677593-1.31342 3-2.939453 3-.456376 0-.90669-.118415-1.306641-.320313l-.78125-.394531h-.419921l-.228516 1.078125c-.232356 1.097441-1.187628 1.923828-2.326172 1.923828-.604541 0-1.1422176-.235121-1.5742188-.630859l-.4042968-.371094h-.5429688l-.4042968.371094c-.4320049.395741-.9696741.630859-1.5742188.630859-1.3153541 0-2.3769531-1.067708-2.3769531-2.429687 0-.914715.4936543-1.679488 1.2226562-2.09961l.7792969-.449218v-.75l-.7128906-.490235c-.7770142-.533276-1.2890625-1.443109-1.2890625-2.498047 0-1.6775908 1.3134196-2.9999996 2.9394531-2.9999998.4563732 0 .9066868.1184155 1.3066406.3203126l.78125.3945312h.4199219l.2285156-1.078125c.2323567-1.0974478 1.1876189-1.9238281 2.3261719-1.9238281z"/></g></svg>

<svg xmlns="http://www.w3.org/2000/svg" viewBox="0 0 24 24">
  <path
     style="opacity:0.35;fill:#555753"
     d="M 4,7 V 17 L 4.5123001,19.408957 12.381337,19.306102 14.022287,17 H 19 L 20.591127,9.7806109 20,6 12,4.6331312 Z"
     />
  <path
     style="fill:#555753"
     d="M 12 3 C 10.255284 3 8.7950901 4.0698314 8.0917969 5.5664062 C 7.7063399 5.4655091 7.3563709 5.2851563 6.9375 5.2851562 C 4.2140251 5.2851562 2 7.5441677 2 10.285156 C 2 11.574133 2.5847731 12.669128 3.3867188 13.564453 C 2.5953552 14.360571 2 15.355769 2 16.572266 C 2 18.997643 3.9622041 21 6.375 21 C 7.2192036 21 7.9632825 20.69165 8.625 20.273438 C 9.2867179 20.69165 10.030797 21 10.875 21 C 12.619714 21 14.079909 19.930168 14.783203 18.433594 C 15.168373 18.534333 15.518979 18.714844 15.9375 18.714844 C 18.660975 18.714844 20.875 16.455834 20.875 13.714844 C 20.875 13.023913 20.580219 12.448511 20.330078 11.859375 C 21.291924 11.04689 22 9.9291281 22 8.5703125 C 22 6.1449353 20.037796 4.1425781 17.625 4.1425781 C 16.763222 4.1425781 16.000493 4.4631971 15.316406 4.9023438 C 14.529698 3.8310964 13.430006 3 12 3 z M 12 4.9980469 C 13.012362 4.9980469 13.845336 5.6527685 14.191406 6.59375 L 14.339844 7 L 15.796875 7 L 15.871094 6.9179688 C 16.30391 6.4380052 16.925463 6.1425781 17.625 6.1425781 C 18.940354 6.1425781 20.001953 7.2083337 20.001953 8.5703125 C 20.001953 9.4998304 19.493322 10.2877 18.755859 10.699219 L 18 11.121094 L 18 11.470703 L 18.394531 12.101562 C 18.694067 12.580312 18.876953 13.133804 18.876953 13.714844 C 18.876953 15.392437 17.563533 16.714844 15.9375 16.714844 C 15.481124 16.714844 15.03081 16.596429 14.630859 16.394531 L 13.849609 16 L 13.429688 16 L 13.201172 17.078125 C 12.968816 18.175566 12.013544 19.001953 10.875 19.001953 C 10.270459 19.001953 9.7327824 18.766832 9.3007812 18.371094 L 8.8964844 18 L 8.3535156 18 L 7.9492188 18.371094 C 7.5172139 18.766835 6.9795447 19.001953 6.375 19.001953 C 5.0596459 19.001953 3.9980469 17.934245 3.9980469 16.572266 C 3.9980469 15.657551 4.4917012 14.892778 5.2207031 14.472656 L 6 14.023438 L 6 13.273438 L 5.2871094 12.783203 C 4.5100952 12.249927 3.9980469 11.340094 3.9980469 10.285156 C 3.9980469 8.6075652 5.3114665 7.2851564 6.9375 7.2851562 C 7.3938732 7.2851562 7.8441868 7.4035717 8.2441406 7.6054688 L 9.0253906 8 L 9.4453125 8 L 9.6738281 6.921875 C 9.9061848 5.8244272 10.861447 4.9980469 12 4.9980469 z "
     />
</svg>
